plasma/desktoptheme/Arc-Color/icons/apport.svg

<svg xmlns="http://www.w3.org/2000/svg" width="32" height="32" version="1.1">
 <defs>
  <style id="current-color-scheme" type="text/css">
   .ColorScheme-Background {color:#2f343f; } .ColorScheme-ButtonBackground { color:#444a58; } .ColorScheme-Highlight { color:#5c87cc; } .ColorScheme-Text { color:#d3dae3; } .ColorScheme-NegativeText { color:#f44336; } .ColorScheme-PositiveText { color:#4caf50; } .ColorScheme-NeutralText { color:#ff9800; }
  </style>
 </defs>
 <g id="22-22-apport" transform="translate(32)">
  <rect style="opacity:0.001" width="22" height="22" x="0" y="10"/>
  <path style="fill:currentColor" class="ColorScheme-NegativeText" d="M 3.125,13 C 2,13 2,14.142578 2,14.142578 V 25.875 c 0,1.143176 1.125,1.142578 1.125,1.142578 H 7.5507812 C 7.2610936,27.089594 6.9815288,27.300445 7,27.861328 V 29 h 8 v -1.138672 c 0,-0.561433 -0.253862,-0.7719 -0.511719,-0.84375 H 18.875 C 20,27.017578 20,25.875 20,25.875 V 14.142578 C 20,14.142578 20,13 18.875,13 Z M 4,15 h 14 v 9.986328 l -14,0.02734 z m 5,2 v 2 h 1 v -2 z m 3,0 v 2 h 1 v -2 z m -4,4 v 1 h 6 v -1 z m 6,1 v 1 h 1 V 22 Z M 8,22 H 7 v 1 h 1 z"/>
 </g>
 <g id="apport">
  <rect style="opacity:0.001" width="32" height="32" x="0" y="0"/>
  <path style="fill:currentColor" class="ColorScheme-NegativeText" d="M 4.625 5 C 3 5 3 6.6425781 3 6.6425781 L 3 23.373047 C 3 25.016363 4.625 25 4.625 25 L 11.017578 25 C 10.599141 25.103522 9.973319 25.422246 10 26.228516 L 10 28 L 22 28 L 22 26.228516 C 22 25.421456 21.411523 25.103284 21.039062 25 L 27.375 25 C 29.000001 25 29 23.373048 29 23.373047 L 29 6.6425781 C 29 6.6425781 29.000001 5 27.375 5 L 4.625 5 z M 6 8 L 26 8 L 26 21.960938 L 6 22 L 6 8 z M 13 10 L 13 13 L 15 13 L 15 10 L 13 10 z M 17 10 L 17 13 L 19 13 L 19 10 L 17 10 z M 12 16 L 12 18 L 20 18 L 20 16 L 12 16 z M 20 18 L 20 20 L 22 20 L 22 18 L 20 18 z M 12 18 L 10 18 L 10 20 L 12 20 L 12 18 z"/>
 </g>
</svg>

<?xml version="1.0" encoding="UTF-8"?>
<svg width="32" height="32" version="1.1" xmlns="http://www.w3.org/2000/svg">
 <defs>
  <style id="current-color-scheme" type="text/css">.ColorScheme-Background {color:#2f343f; } .ColorScheme-ButtonBackground { color:#444a58; } .ColorScheme-Highlight { color:#5c87cc; } .ColorScheme-Text { color:#d3dae3; } .ColorScheme-NegativeText { color:#f44336; } .ColorScheme-PositiveText { color:#4caf50; } .ColorScheme-NeutralText { color:#ff9800; }</style>
 </defs>
 <g id="22-22-apport" transform="translate(32)">
  <rect y="10" width="22" height="22" opacity=".001"/>
  <path class="ColorScheme-NegativeText" d="m3.125 13c-1.125 0-1.125 1.1426-1.125 1.1426v11.732c0 1.1432 1.125 1.1426 1.125 1.1426h4.4258c-0.28969 0.072016-0.56925 0.28287-0.55078 0.84375v1.1387h8v-1.1387c0-0.56143-0.25386-0.7719-0.51172-0.84375h4.3867c1.125 0 1.125-1.1426 1.125-1.1426v-11.732s0-1.1426-1.125-1.1426zm0.875 2h14v9.9863l-14 0.02734zm5 2v2h1v-2zm3 0v2h1v-2zm-4 4v1h6v-1zm6 1v1h1v-1zm-6 0h-1v1h1z" fill="currentColor"/>
 </g>
 <g id="apport">
  <rect width="32" height="32" opacity=".001"/>
  <path class="ColorScheme-NegativeText" d="m4.625 5c-1.625 0-1.625 1.6426-1.625 1.6426v16.73c0 1.6433 1.625 1.627 1.625 1.627h6.3926c-0.41844 0.10352-1.0443 0.42225-1.0176 1.2285v1.7715h12v-1.7715c0-0.80706-0.58848-1.1252-0.96094-1.2285h6.3359c1.625 0 1.625-1.627 1.625-1.627v-16.73s1e-6 -1.6426-1.625-1.6426h-22.75zm1.375 3h20v13.961l-20 0.039062v-14zm7 2v3h2v-3h-2zm4 0v3h2v-3h-2zm-5 6v2h8v-2h-8zm8 2v2h2v-2h-2zm-8 0h-2v2h2v-2z" fill="currentColor"/>
 </g>
</svg>
